X: 13360
T: Flax In Bloom, The
R: reel
M: 4/4
K: Dmajor
|:D2ED FAAf|gefd edBd|A2FA dfaf|g2fd edBd|
D2ED FAAf|gefd edBd|A2FB ABdf|1 afeg fdd2:|2 afeg fdde||
|:f2df edce|d2cd BAFA|DFAd FAdf|(3gfe fd edBd|
f2df edce|d2cd BAFA|DEFG ABdf|1 afeg fdde:|2 afeg fdd2||

